app/dist/common/images/hunan-gold-corpora.svg

<svg height="18" viewBox="0 0 18 18" width="18" xmlns="http://www.w3.org/2000/svg"><path d="m0 0h18v18h-18z" fill="#f0f3fa"/><path d="m9 13.8a4.8 4.8 0 1 0 0-9.6 4.8 4.8 0 0 0 0 9.6zm0 1.2a6 6 0 1 0 0-12 6 6 0 0 0 0 12zm.35-9v2.62h-.74v-1.62h-1.61v4h1.24v1h-2.24v-6zm-.72 3.38v2.62h3.37v-6h-2.25v1h1.25v4h-1.63v-1.63h-.74z" fill="#e0a502" fill-rule="evenodd"/></svg>

<!-- by TradingView --><svg width="18" height="18" viewBox="0 0 18 18" xmlns="http://www.w3.org/2000/svg"><path fill="#F0F3FA" d="M0 0h18v18H0z"/><path fill-rule="evenodd" d="M9 13.8a4.8 4.8 0 1 0 0-9.6 4.8 4.8 0 0 0 0 9.6ZM9 15A6 6 0 1 0 9 3a6 6 0 0 0 0 12Zm.35-9v2.62h-.74V7H7v4h1.24v1H6V6h3.35Zm-.72 3.38V12H12V6H9.75v1H11v4H9.37V9.37h-.74Z" fill="#E0A502"/></svg>
